!!!COM: Bach, Johann Sebastian
!!!OPR: Chorale Harmonizations
!!!ONR: Nr. 109
!!!OTL: Jesu, nun sei gepreiset
!!!SCT: BWV 362
!!!YEC: Copyright 1996, Center for Computer Assisted Research in the Humanities
!!!YEM: Rights to all derivative electronic formats reserved.
!!!YEM: Refer to licensing agreement for further details.
**kern	**kern	**kern	**kern
*ICvox	*ICvox	*ICvox	*ICvox
*Ibass	*Itenor	*Icalto	*Isoprn
*	*	*Ialto	*
*k[b-e-]	*k[b-e-]	*k[b-e-]	*k[b-e-]
*M4/4	*M4/4	*M4/4	*M4/4
*clefF4	*clefGv2	*clefG2	*clefG2
*>[A,A,B]	*>[A,A,B]	*>[A,A,B]	*>[A,A,B]
*>A	*>A	*>A	*>A
8B-\L	4B-\	4f/	4dd\
8A\J	.	.	.
=1	=1	=1	=1
8G\L,	8B-\L,	8g/L,	4dd\,
8A\J	8c\J	8f#/J	.
8G\L	4d\	4g/	4b-\
8F\J	.	.	.
8E-\L	4c\	8g/L	4cc\
8F\J	.	8a/J	.
8E-\L	4fn\	4b-\	4dd\
8D\J	.	.	.
=2	=2	=2	=2
4C/	8e-\L	8b-/L	4ee-\
.	8c\J	8a/J	.
8D\L	4f\	4b-\	8dd\L
8E-\J	.	.	8cc\J
4F;\	4f;\	4a;/	4cc;\
4E-\	4c\	4g/	4cc\
=3	=3	=3	=3
4D\	8d\L	4f#/	4cc\
.	8A\J	.	.
8G\L	4B-\	4d/	4b-\
8F\J	.	.	.
4E\	4c\	4g/	8b-/L
.	.	.	8g/J
4F\	4c\	4fn/	4a/
=4	=4	=4	=4
2.BB-;/,	2.d;\,	2.f;/,	2.b-;\,
8F\L	8A/L	8f/L	4cc\
8G\J	8B-/J	8e/J	.
=5	=5	=5	=5
8A\L	8c\L	8f/L	4cc\
8B-\J	8d\J	8g/J	.
4c\	4e-\	8a/L	4cc\
.	.	8g/J	.
4.F#\	4d\	4.a/	8cc\L
.	.	.	16dd\L
.	.	.	16ee-\JJ
.	4A/	.	8dd\L
8D\	.	8f#/	8cc\J
=6	=6	=6	=6
8G\L	4B-\	8d/L	2b-\
8F\	.	8e-/J	.
8E-\	4A-/	4f/	.
8D\J	.	.	.
4E-;\	4G;/	4e-;/	4b-;\
4En\	4c\	4g/	4b-\
=7	=7	=7	=7
4F\	4c\	8f/L	8a/L
.	.	8e-/J	8f/J
4G\	4B-\	8d/L	8b-\L
.	.	8e-/J	8ee-\J
8F\L	4B-\	8f/L	8dd:\L
8E-\J	.	8g/J	8cc\J
4F\	4A/	8f/L	4cc\
.	.	8e-/J	.
=8	=8	=8	=8
2.BB-;/	2.F;/	2.d;/	2.b-;\
=8b:|!@	=8b:|!@	=8b:|!@	=8b:|!@
*>B	*>B	*>B	*>B
4FF/	8F/L	4c/	4a/
.	8A/J	.	.
=9	=9	=9	=9
8F\L	4c\	4f/	4a/
8G\J	.	.	.
8F\L	4c\	4f/	4a/
8E-\J	.	.	.
8D\L	4d\	8f#/L	4a/
8En\J	.	8g/J	.
8F#\L	8d\L	8a/L	4a/
8D\J	8c\J	8f#/J	.
=10	=10	=10	=10
8G\L	4B-\	8g/L	2b-:\
8F\	.	8e-/J	.
8E-\	4A-/	4f/	.
8D\J	.	.	.
4E-;\	4G;/	4e-;/	4b-;\
4En\	4c\	4g/	4b-\
=11	=11	=11	=11
4F\	4c\	4f/	4a/
8C/L	4c\	8e-/L	4a/
8D/J	.	8d/J	.
8E-\L	4f\	4c/	4a/
8G\J	.	.	.
8F\L	4c\	4f/	4a/
8E-\J	.	.	.
=12	=12	=12	=12
8D/L	8B-/L	4f/	2b-\
8BB-/J	8A-/J	.	.
4E-\	4G/	4e-/	.
4BB-;/	4F;/	4d;/	4b-;\
4B-\	4B-\	8f/L	4dd\
.	.	8g/J	.
=13	=13	=13	=13
4F#\	4A/	4a/	8dd\L
.	.	.	8cc\J
8G\L	8B-/L	4d/	4b-\
8Fn\J	8A/J	.	.
8E-\L	8G/L	8g/L	4cc\
8F\J	8A/J	8f/J	.
8E-\L	4B-\	4f/	4dd\
8D\J	.	.	.
=14	=14	=14	=14
4C/	4B-\	8e-/L	2ee-\
.	.	8d/	.
4F\	4A/	8c/	.
.	.	8f/J	.
4BB-;/	4B-;\	4f;/	4dd;\
4B-\	4B-\	4f/	4dd\
=15	=15	=15	=15
4A\	4c\	8f/L	8cc\L
.	.	8d/J	8b\J
4A-\	4c\	8e-/L	8cc\L
.	.	8f/J	8ff\J
8G\L	4c\	8g/L	8ee-\L
8F\J	.	8a-/J	8dd\J
4G\	4B\	8g/L	4dd\
.	.	8f/J	.
=16	=16	=16	=16
*M3/4	*M3/4	*M3/4	*M3/4
2C/	2G/	2g/	2cc\
4D\	4d\	4a/	4b\
=17	=17	=17	=17
4E-\	4c\	2b-\	2cc\
4En\	4B-\	.	.
[4F\	4A-/	8a/L	4cc\
.	.	8g/J	.
=18	=18	=18	=18
4F\]	2A/	4f/	2dd\
4F#\	.	8dd\L	.
.	.	8cc\J	.
[4G\	4B-\	8b-/L	4dd\
.	.	8a-/J	.
=19	=19	=19	=19
4G\]	4B\	8g/L	2.ee-\
.	.	8f/	.
4A-\	[2c\	8e-/	.
.	.	8g/	.
4G\	.	8cc/	.
.	.	8b-/J	.
=20	=20	=20	=20
4F#\	4c\]	4a/	2dd\
4G\	4B-\	4d/	.
4Fn\	4B-\	4g/	4dd\
=21	=21	=21	=21
4E\	4B-\	4g/	2cc\
8F\L	8A-/L	4f/	.
8G\J	8B-/J	.	.
4A-\	8c\L	8e-/L	4cc\
.	8d\J	8f/J	.
=22	=22	=22	=22
4G\	4e-\	4g/	4cc\
4F\	4f\	4a-/	8ee-\L
.	.	.	8dd\J
4G\	4d\	4g/	8cc\L
.	.	.	8b\J
=23	=23	=23	=23
2C;/	2e-;\	2g;/	2cc;\
4G\	4d\	4g/	4b\
=24	=24	=24	=24
4A-\	4c\	4g/	2cc\
2An\	4f\	[2f/	.
.	4e-\	.	4cc\
=25	=25	=25	=25
4B-\	8d\L	8f/L]	2dd\
.	8e-\J	8g/J	.
2Bn\	4f\	4a-/	.
.	8e-\L	4g/	4dd\
.	8d\J	.	.
=26	=26	=26	=26
4c\	4c\	2g/	2.ee-\
4G\	4B-\	.	.
4A\	4c\	4f/	.
=27	=27	=27	=27
8B-\L	2B-\	2f/	2dd\
8c\	.	.	.
8B-\	.	.	.
8A\J	.	.	.
8G\L	4B-\	4g/	4dd\
8F\J	.	.	.
=28	=28	=28	=28
8E-\L	4c\	2g/	2cc\
8G\	.	.	.
8F\	4d\	.	.
8E-\J	.	.	.
8D/L	4e-\	4g/	4b-\
8C/J	.	.	.
=29	=29	=29	=29
4F\	4d\	4f/	4b-\
4E-\	4e-\	4g/	8dd\L
.	.	.	8cc\J
4F\	4c\	4f/	8b-/L
.	.	.	8a/J
=30	=30	=30	=30
2.BB-;/	2.d;\	2.f;/	2.b-;\
==@	==@	==@	==@
*-	*-	*-	*-
!!!CDT: 1685/3//-1750/7/28
!!!OCY: Deutschland
!!!PDT: 1784//
!!!PPP: Leipzig
!!!AGN: chorale harmonization
!!!AST: baroque, choral
!!!AMT: irregular
!!!YOR: Bach Gesellschaft, xxxix
!!!AIN: bass calto soprn tenor vox
!!!EEV: 1.0
!!!RDT: 1994 July 07
!!!YER: 1996 July 11
!!!YEN: United States of America
!!!EFL: 109/185
!!!ENC: S. Rasmussen
!!!EED: W.B. Hewlett
!!!VTS: 2833533428
